omega/mobile/images/sports/check.svg

<svg height="7.11in" viewBox="0 0 711 711" width="7.11in" xmlns="http://www.w3.org/2000/svg"><path d="m661 54v125c0 1.95.12 5.06-.6 6.83-1.37 3.35-15.67 13.82-19.4 16.92-19.55 16.29-38.01 33.26-56 51.25-43.07 43.07-79.73 92.45-108.69 146-7.66 14.17-14.33 29.05-20.31 44 0 0-10 25-10 25-6.14-17.6-25.77-52.89-35.58-70-6.07-10.59-20.36-35.66-27.42-44 0 0-36 25-36 25s-56 37.31-56 37.31-38 25.69-38 25.69c15.03 1.26 40.29 11.9 54 18.75 36.94 18.47 73.2 47.71 100.83 78.25 0 0 22.75 27 22.75 27s16.42 21 16.42 21 10.67-16 10.67-16 22.99-34 22.99-34c32.52-47.81 67.95-94.59 110.34-134.09 15.15-14.11 30.42-27.83 47-40.28 5.77-4.34 16.82-13.01 23-15.63v309h-429v-603zm-455 98v65 225 75 22c0 4 .49 8.24-1 12 0 0-8.12-35-8.12-35s-17-71-17-71-39.76-167-39.76-167-17-71-17-71-8.12-34-8.12-34 58-32.7 58-32.7 32-18.3 32-18.3c1.93 4.87 1 23.62 1 30zm-109 135s18.02 59 18.02 59 34.7 113 34.7 113 11.3 37 11.3 37 5.98 20 5.98 20-13.37-16-13.37-16-19-25-19-25-60-79-60-79-22-29-22-29-7.44-12-7.44-12 3.56-9 3.56-9 8.03-17 8.03-17 22.48-46 22.48-46 9.74-20 9.74-20 8 24 8 24z"/></svg>

<?xml version="1.0" encoding="UTF-8" standalone="no"?>
<!DOCTYPE svg PUBLIC "-//W3C//DTD SVG 20010904//EN"
              "http://www.w3.org/TR/2001/REC-SVG-20010904/DTD/svg10.dtd">

<svg xmlns="http://www.w3.org/2000/svg"
     width="7.11in" height="7.11in"
     viewBox="0 0 711 711">
  <path id="Selection"
        fill="black" 
        d="M 661.00,54.00
           C 661.00,54.00 661.00,179.00 661.00,179.00
             661.00,180.95 661.12,184.06 660.40,185.83
             659.03,189.18 644.73,199.65 641.00,202.75
             621.45,219.04 602.99,236.01 585.00,254.00
             541.93,297.07 505.27,346.45 476.31,400.00
             468.65,414.17 461.98,429.05 456.00,444.00
             456.00,444.00 446.00,469.00 446.00,469.00
             439.86,451.40 420.23,416.11 410.42,399.00
             404.35,388.41 390.06,363.34 383.00,355.00
             383.00,355.00 347.00,380.00 347.00,380.00
             347.00,380.00 291.00,417.31 291.00,417.31
             291.00,417.31 253.00,443.00 253.00,443.00
             268.03,444.26 293.29,454.90 307.00,461.75
             343.94,480.22 380.20,509.46 407.83,540.00
             407.83,540.00 430.58,567.00 430.58,567.00
             430.58,567.00 447.00,588.00 447.00,588.00
             447.00,588.00 457.67,572.00 457.67,572.00
             457.67,572.00 480.66,538.00 480.66,538.00
             513.18,490.19 548.61,443.41 591.00,403.91
             606.15,389.80 621.42,376.08 638.00,363.63
             643.77,359.29 654.82,350.62 661.00,348.00
             661.00,348.00 661.00,657.00 661.00,657.00
             661.00,657.00 232.00,657.00 232.00,657.00
             232.00,657.00 232.00,54.00 232.00,54.00
             232.00,54.00 661.00,54.00 661.00,54.00 Z
           M 206.00,152.00
           C 206.00,152.00 206.00,217.00 206.00,217.00
             206.00,217.00 206.00,442.00 206.00,442.00
             206.00,442.00 206.00,517.00 206.00,517.00
             206.00,517.00 206.00,539.00 206.00,539.00
             206.00,543.00 206.49,547.24 205.00,551.00
             205.00,551.00 196.88,516.00 196.88,516.00
             196.88,516.00 179.88,445.00 179.88,445.00
             179.88,445.00 140.12,278.00 140.12,278.00
             140.12,278.00 123.12,207.00 123.12,207.00
             123.12,207.00 115.00,173.00 115.00,173.00
             115.00,173.00 173.00,140.30 173.00,140.30
             173.00,140.30 205.00,122.00 205.00,122.00
             206.93,126.87 206.00,145.62 206.00,152.00 Z
           M 97.00,287.00
           C 97.00,287.00 115.02,346.00 115.02,346.00
             115.02,346.00 149.72,459.00 149.72,459.00
             149.72,459.00 161.02,496.00 161.02,496.00
             161.02,496.00 167.00,516.00 167.00,516.00
             167.00,516.00 153.63,500.00 153.63,500.00
             153.63,500.00 134.63,475.00 134.63,475.00
             134.63,475.00 74.63,396.00 74.63,396.00
             74.63,396.00 52.63,367.00 52.63,367.00
             52.63,367.00 45.19,355.00 45.19,355.00
             45.19,355.00 48.75,346.00 48.75,346.00
             48.75,346.00 56.78,329.00 56.78,329.00
             56.78,329.00 79.26,283.00 79.26,283.00
             79.26,283.00 89.00,263.00 89.00,263.00
             89.00,263.00 97.00,287.00 97.00,287.00 Z" />
</svg>
